X:4001
T:Danny Boy
T:Londonderry Air
T:Young Man's Dream, The
R:Air
C:Trad.
O:Ireland
M:4/4
L:1/8
Q:1/8=180
K:C
B,CD|"C"E3D EAGE|"F"DCA,2 z CEF|"C"G3A GE"Am"CE|"D7"D4 "G7"z B,CD|
"C"E3D EA"C7"GE|"F"DCA,2 "G7"z B,CD|"C"E3F "G7"EDCD|"C"C4 "G7"z GAB|
"C"c3B "F"BA"G7"GA|"C"GEC2 "G7"z GAB|"C"c3B "F"BA"A7"GE|"D7"D4 "G7"z GGG|
"C"e3d "F"dcAc|"C"GE"Am7"C2 "F"z B,"G7"CD|"C"EAGE "G7"DCA,B,|"C"C4|]

